X: 1
T: John Joe Gardiner's
M: 6/8
L: 1/8
R: jig
K: Gmaj
dBA B2A|GAG G2A|Bee dBA|BAB Age|
dBA B2A|GAG G2A|Bee dBA|1 BGF G2e:|2 BGF G2d||
gfg age|ded d2f|gfg aga|bge e2f|
g2b age|ded d2f|gfe fdB|1 ABd e2f:|2 ABd efg||
